material/.icons/material/content-save-edit-outline.svg

<svg xmlns="http://www.w3.org/2000/svg" viewBox="0 0 24 24"><path d="M4 19h6v2H4a2 2 0 01-2-2V5a2 2 0 012-2h12l4 4v2.12l-2 2V7.83L15.17 5H4v14m10-9V6H5v4h9m6.42 2.3a.533.533 0 00-.38-.17c-.14 0-.28.06-.39.17l-1 1 2.05 2.05 1-1c.22-.21.22-.56 0-.77l-1.28-1.28M12 19.94V22h2.06l6.06-6.07-2.05-2.05L12 19.94M14 15c0-1.66-1.34-3-3-3s-3 1.34-3 3 1.34 3 3 3h.13L14 15.13V15"/></svg>

<?xml version="1.0" encoding="UTF-8"?><!DOCTYPE svg PUBLIC "-//W3C//DTD SVG 1.1//EN" "http://www.w3.org/Graphics/SVG/1.1/DTD/svg11.dtd"><svg xmlns="http://www.w3.org/2000/svg" xmlns:xlink="http://www.w3.org/1999/xlink" version="1.1" id="mdi-content-save-edit-outline" width="24" height="24" viewBox="0 0 24 24"><path d="M4 19H10V21H4C2.89 21 2 20.1 2 19V5C2 3.9 2.89 3 4 3H16L20 7V9.12L18 11.12V7.83L15.17 5H4V19M14 10V6H5V10H14M20.42 12.3C20.31 12.19 20.18 12.13 20.04 12.13C19.9 12.13 19.76 12.19 19.65 12.3L18.65 13.3L20.7 15.35L21.7 14.35C21.92 14.14 21.92 13.79 21.7 13.58L20.42 12.3M12 19.94V22H14.06L20.12 15.93L18.07 13.88L12 19.94M14 15C14 13.34 12.66 12 11 12S8 13.34 8 15 9.34 18 11 18C11.04 18 11.08 18 11.13 18L14 15.13C14 15.09 14 15.05 14 15" /></svg>
